;Generated with Cura_SteamEngine 15.05
; Default start code
G28 ; Home extruder
G1 Z15 F1000
M107 ; Turn off fan
G90 ; Absolute positioning
M82 ; Extruder in absolute mode
M190 S70
; Activate all used extruder
M104 T0 S210
G92 E0 ; Reset extruder position
; Wait for all used extruders to reach temperature
M109 T0 S210
;Layer count: 75
;LAYER:0
M107
G0 F9000 X76.781 Y81.781 Z0.200
;TYPE:SKIRT
G1 F1800 X123.219 Y81.781 E1.69513
G1 X123.219 Y118.219 E3.02522
G1 X76.781 Y118.219 E4.72035
G1 X76.781 Y81.781 E6.05044
G1 F2400 E2.05044
G0 F9000 X81.097 Y86.097
;TYPE:WALL-INNER
G1 F2400 E6.05044
G1 F1800 X118.903 Y86.097 E7.43048
G1 X118.903 Y113.903 E8.44548
G1 X81.097 Y113.903 E9.82551
G1 X81.097 Y86.097 E10.84051
G0 F9000 X112.420 Y89.670
G1 F1800 X112.401 Y90.108 E10.85652
G1 X112.457 Y90.548 E10.87271
G1 X112.587 Y90.970 E10.88883
G1 X112.783 Y91.362 E10.90483
G1 X113.046 Y91.718 E10.92098
G1 X113.367 Y92.025 E10.93720
G1 X113.732 Y92.270 E10.95324
G1 X114.133 Y92.452 E10.96932
G1 X114.559 Y92.563 E10.98539
G1 X115.000 Y92.601 E11.00154
G1 X115.440 Y92.563 E11.01767
G1 X115.866 Y92.452 E11.03373
G1 X116.267 Y92.270 E11.04981
G1 X116.632 Y92.025 E11.06586
G1 X116.953 Y91.718 E11.08207
G1 X117.216 Y91.362 E11.09823
G1 X117.412 Y90.970 E11.11422
G1 X117.542 Y90.548 E11.13034
G1 X117.598 Y90.108 E11.14653
G1 X117.579 Y89.670 E11.16254
G1 X117.487 Y89.239 E11.17862
G1 X117.321 Y88.826 E11.19487
G1 X117.089 Y88.452 E11.21094
G1 X116.799 Y88.122 E11.22697
G1 X116.456 Y87.845 E11.24307
G1 X116.071 Y87.630 E11.25916
G1 X115.655 Y87.483 E11.27527
G1 X115.242 Y87.412 E11.29057
G1 X115.000 Y87.402 E11.29941
G1 X114.757 Y87.412 E11.30829
G1 X114.344 Y87.483 E11.32358
G1 X113.928 Y87.630 E11.33969
G1 X113.543 Y87.845 E11.35579
G1 X113.200 Y88.122 E11.37188
G1 X112.910 Y88.452 E11.38792
G1 X112.678 Y88.826 E11.40398
G1 X112.512 Y89.239 E11.42023
G1 X112.420 Y89.670 E11.43632
G0 F9000 X114.757 Y107.412
G1 F1800 X114.344 Y107.483 E11.45161
G1 X113.928 Y107.630 E11.46772
G1 X113.543 Y107.845 E11.48381
G1 X113.200 Y108.122 E11.49991
G1 X112.910 Y108.452 E11.51594
G1 X112.678 Y108.826 E11.53201
G1 X112.512 Y109.239 E11.54826
G1 X112.420 Y109.670 E11.56435
G1 X112.401 Y110.108 E11.58035
G1 X112.457 Y110.548 E11.59654
G1 X112.587 Y110.970 E11.61266
G1 X112.783 Y111.362 E11.62866
G1 X113.046 Y111.718 E11.64481
G1 X113.367 Y112.025 E11.66103
G1 X113.732 Y112.270 E11.67707
G1 X114.133 Y112.452 E11.69315
G1 X114.559 Y112.563 E11.70922
G1 X115.000 Y112.601 E11.72537
G1 X115.440 Y112.563 E11.74150
G1 X115.866 Y112.452 E11.75757
G1 X116.267 Y112.270 E11.77364
G1 X116.632 Y112.025 E11.78969
G1 X116.953 Y111.718 E11.80590
G1 X117.216 Y111.362 E11.82206
G1 X117.412 Y110.970 E11.83806
G1 X117.542 Y110.548 E11.85417
G1 X117.598 Y110.108 E11.87037
G1 X117.579 Y109.670 E11.88637
G1 X117.487 Y109.239 E11.90246
G1 X117.321 Y108.826 E11.91870
G1 X117.089 Y108.452 E11.93477
G1 X116.799 Y108.122 E11.95081
G1 X116.456 Y107.845 E11.96690
G1 X116.071 Y107.630 E11.98300
G1 X115.655 Y107.483 E11.99910
G1 X115.242 Y107.412 E12.01440
G1 X115.000 Y107.402 E12.02324
G1 X114.757 Y107.412 E12.03212
G0 F9000 X115.000 Y107.841
G1 F1800 X114.803 Y107.849 E12.03931
G1 X114.455 Y107.909 E12.05220
G1 X114.110 Y108.031 E12.06556
G1 X113.790 Y108.210 E12.07895
G1 X113.505 Y108.440 E12.09231
G1 X113.264 Y108.715 E12.10566
G1 X113.071 Y109.025 E12.11899
G1 X112.933 Y109.367 E12.13245
G1 X112.857 Y109.726 E12.14585
G1 X112.841 Y110.090 E12.15915
G1 X112.887 Y110.455 E12.17258
G1 X112.995 Y110.805 E12.18595
G1 X113.159 Y111.131 E12.19927
G1 X113.377 Y111.427 E12.21269
G1 X113.643 Y111.681 E12.22611
G1 X113.946 Y111.886 E12.23947
G1 X114.280 Y112.037 E12.25285
G1 X114.634 Y112.129 E12.26620
G1 X115.000 Y112.160 E12.27961
G1 X115.365 Y112.129 E12.29298
G1 X115.719 Y112.037 E12.30633
G1 X116.053 Y111.886 E12.31971
G1 X116.356 Y111.681 E12.33306
G1 X116.622 Y111.427 E12.34649
G1 X116.840 Y111.131 E12.35991
G1 X117.004 Y110.805 E12.37323
G1 X117.112 Y110.455 E12.38660
G1 X117.158 Y110.090 E12.40003
G1 X117.142 Y109.726 E12.41333
G1 X117.066 Y109.367 E12.42672
G1 X116.928 Y109.025 E12.44019
G1 X116.735 Y108.715 E12.45352
G1 X116.494 Y108.440 E12.46686
G1 X116.209 Y108.210 E12.48023
G1 X115.889 Y108.031 E12.49362
G1 X115.544 Y107.909 E12.50697
G1 X115.196 Y107.849 E12.51987
G1 X115.000 Y107.841 E12.52703
G0 F9000 X116.480 Y108.455
G0 X117.137 Y110.089
G0 X119.342 Y114.342
G1 F1800 X80.658 Y114.342 E13.93911
G1 X80.658 Y85.658 E14.98616
G1 X119.342 Y85.658 E16.39824
G1 X119.342 Y114.342 E17.44529
G0 F9000 X115.365 Y92.129
G1 F1800 X115.719 Y92.037 E17.45864
G1 X116.053 Y91.886 E17.47202
G1 X116.356 Y91.681 E17.48538
G1 X116.622 Y91.427 E17.49880
G1 X116.840 Y91.131 E17.51222
G1 X117.004 Y90.805 E17.52554
G1 X117.112 Y90.455 E17.53891
G1 X117.158 Y90.090 E17.55234
G1 X117.142 Y89.726 E17.56564
G1 X117.066 Y89.367 E17.57904
G1 X116.928 Y89.025 E17.59250
G1 X116.735 Y88.715 E17.60583
G1 X116.494 Y88.440 E17.61918
G1 X116.209 Y88.210 E17.63255
G1 X115.889 Y88.031 E17.64593
G1 X115.544 Y87.909 E17.65929
G1 X115.196 Y87.849 E17.67218
G1 X115.000 Y87.841 E17.67934
G1 X114.803 Y87.849 E17.68654
G1 X114.455 Y87.909 E17.69943
G1 X114.110 Y88.031 E17.71279
G1 X113.790 Y88.210 E17.72617
G1 X113.505 Y88.440 E17.73954
G1 X113.264 Y88.715 E17.75289
G1 X113.071 Y89.025 E17.76622
G1 X112.933 Y89.367 E17.77968
G1 X112.857 Y89.726 E17.79307
G1 X112.841 Y90.090 E17.80637
G1 X112.887 Y90.455 E17.81980
G1 X112.995 Y90.805 E17.83317
G1 X113.159 Y91.131 E17.84649
G1 X113.377 Y91.427 E17.85991
G1 X113.643 Y91.681 E17.87334
G1 X113.946 Y91.886 E17.88669
G1 X114.280 Y92.037 E17.90007
G1 X114.634 Y92.129 E17.91342
G1 X115.000 Y92.160 E17.92683
G1 X115.365 Y92.129 E17.94020
G0 F9000 X115.290 Y91.695
;TYPE:WALL-OUTER
G1 F1800 X115.572 Y91.621 E17.95084
G1 X115.838 Y91.501 E17.96150
G1 X116.080 Y91.338 E17.97215
G1 X116.291 Y91.136 E17.98281
G1 X116.464 Y90.901 E17.99346
G1 X116.595 Y90.641 E18.00409
G1 X116.681 Y90.362 E18.01475
G1 X116.718 Y90.072 E18.02542
G1 X116.705 Y89.781 E18.03605
G1 X116.644 Y89.496 E18.04669
G1 X116.535 Y89.225 E18.05735
G1 X116.381 Y88.977 E18.06801
G1 X116.189 Y88.758 E18.07864
G1 X115.962 Y88.575 E18.08928
G1 X115.708 Y88.433 E18.09991
G1 X115.433 Y88.335 E18.11056
G1 X115.150 Y88.287 E18.12104
G1 X115.000 Y88.281 E18.12652
G1 X114.849 Y88.287 E18.13204
G1 X114.566 Y88.335 E18.14251
G1 X114.291 Y88.433 E18.15317
G1 X114.037 Y88.575 E18.16379
G1 X113.810 Y88.758 E18.17444
G1 X113.618 Y88.977 E18.18507
G1 X113.464 Y89.225 E18.19572
G1 X113.355 Y89.496 E18.20639
G1 X113.294 Y89.781 E18.21703
G1 X113.281 Y90.072 E18.22766
G1 X113.318 Y90.362 E18.23833
G1 X113.404 Y90.641 E18.24899
G1 X113.535 Y90.901 E18.25962
G1 X113.708 Y91.136 E18.27027
G1 X113.919 Y91.338 E18.28093
G1 X114.161 Y91.501 E18.29158
G1 X114.427 Y91.621 E18.30223
G1 X114.709 Y91.695 E18.31288
G1 X115.000 Y91.720 E18.32354
G1 X115.290 Y91.695 E18.33416
G0 F9000 X115.317 Y92.013
G0 X116.607 Y91.414
G0 X117.122 Y89.728
G0 X119.461 Y85.449
G0 X119.781 Y85.219
G1 F1800 X119.781 Y114.781 E19.41326
G1 X80.219 Y114.781 E20.85740
G1 X80.219 Y85.219 E21.93650
G1 X119.781 Y85.219 E23.38063
G0 F9000 X119.461 Y85.449
G0 X115.489 Y108.022
G0 X115.433 Y108.335
G1 F1800 X115.150 Y108.287 E23.39111
G1 X115.000 Y108.281 E23.39659
G1 X114.849 Y108.287 E23.40210
G1 X114.566 Y108.335 E23.41258
G1 X114.291 Y108.433 E23.42324
G1 X114.037 Y108.575 E23.43386
G1 X113.810 Y108.758 E23.44450
G1 X113.618 Y108.977 E23.45513
G1 X113.464 Y109.225 E23.46579
G1 X113.355 Y109.496 E23.47645
G1 X113.294 Y109.781 E23.48709
G1 X113.281 Y110.072 E23.49772
G1 X113.318 Y110.362 E23.50840
G1 X113.404 Y110.641 E23.51905
G1 X113.535 Y110.901 E23.52968
G1 X113.708 Y111.136 E23.54033
G1 X113.919 Y111.338 E23.55100
G1 X114.161 Y111.501 E23.56165
G1 X114.427 Y111.621 E23.57230
G1 X114.709 Y111.695 E23.58294
G1 X115.000 Y111.720 E23.59360
G1 X115.290 Y111.695 E23.60423
G1 X115.572 Y111.621 E23.61487
G1 X115.838 Y111.501 E23.62552
G1 X116.080 Y111.338 E23.63617
G1 X116.291 Y111.136 E23.64684
G1 X116.464 Y110.901 E23.65749
G1 X116.595 Y110.641 E23.66811
G1 X116.681 Y110.362 E23.67877
G1 X116.718 Y110.072 E23.68944
G1 X116.705 Y109.781 E23.70008
G1 X116.644 Y109.496 E23.71072
G1 X116.535 Y109.225 E23.72138
G1 X116.381 Y108.977 E23.73203
G1 X116.189 Y108.758 E23.74267
G1 X115.962 Y108.575 E23.75331
G1 X115.708 Y108.433 E23.76393
G1 X115.433 Y108.335 E23.77459
G0 F9000 X115.761 Y107.380
;TYPE:SKIN
G1 F1800 X94.609 Y86.228 E24.86652
G0 F9000 X93.988 Y86.228
G1 F1800 X115.031 Y107.271 E25.95282
G0 F9000 X114.467 Y107.328
G1 F1800 X93.367 Y86.228 E27.04207
G0 F9000 X92.746 Y86.228
G1 F1800 X113.986 Y107.468 E28.13854
G0 F9000 X113.572 Y107.675
G1 F1800 X92.126 Y86.228 E29.24567
G0 F9000 X91.505 Y86.228
G1 F1800 X113.215 Y107.939 E30.36644
G0 F9000 X112.907 Y108.252
G1 F1800 X90.884 Y86.228 E31.50336
G0 F9000 X90.263 Y86.228
G1 F1800 X112.652 Y108.617 E32.65914
G0 F9000 X112.451 Y109.037
G1 F1800 X89.642 Y86.228 E33.83661
G0 F9000 X89.021 Y86.228
G1 F1800 X112.316 Y109.523 E35.03917
G0 F9000 X112.268 Y110.096
G1 F1800 X88.401 Y86.228 E36.27129
G0 F9000 X87.780 Y86.228
G1 F1800 X112.415 Y110.864 E37.54305
G0 F9000 X114.142 Y112.591
G1 F1800 X115.322 Y113.770 E37.60393
G0 F9000 X115.942 Y113.770
G1 F1800 X114.896 Y112.724 E37.65793
G0 F9000 X115.481 Y112.688
G1 F1800 X116.563 Y113.770 E37.71379
G0 F9000 X117.184 Y113.770
G1 F1800 X115.965 Y112.551 E37.77672
G0 F9000 X116.384 Y112.350
G1 F1800 X117.805 Y113.770 E37.85005
G0 F9000 X118.426 Y113.770
G1 F1800 X116.751 Y112.095 E37.93652
G0 F9000 X117.064 Y111.787
G1 F1800 X118.770 Y113.494 E38.02461
G0 F9000 X118.770 Y112.873
G1 F1800 X117.327 Y111.430 E38.09910
G0 F9000 X117.534 Y111.016
G1 F1800 X118.770 Y112.252 E38.16291
G0 F9000 X118.770 Y111.631
G1 F1800 X117.676 Y110.537 E38.21938
G0 F9000 X117.723 Y109.963
G1 F1800 X118.770 Y111.010 E38.27343
G0 F9000 X118.770 Y110.389
G1 F1800 X117.621 Y109.240 E38.33275
G0 F9000 X118.770 Y109.148
G1 F1800 X95.851 Y86.228 E39.51592
G0 F9000 X96.471 Y86.228
G1 F1800 X118.770 Y108.527 E40.66706
G0 F9000 X118.770 Y107.906
G1 F1800 X97.092 Y86.228 E41.78615
G0 F9000 X97.713 Y86.228
G1 F1800 X118.770 Y107.285 E42.87318
G0 F9000 X118.770 Y106.664
G1 F1800 X98.334 Y86.228 E43.92814
G0 F9000 X98.955 Y86.228
G1 F1800 X118.770 Y106.044 E44.95108
G0 F9000 X118.770 Y105.423
G1 F1800 X99.576 Y86.228 E45.94196
G0 F9000 X95.230 Y86.228
G1 F1800 X118.770 Y109.769 E47.15719
G0 F9000 X118.770 Y104.802
G1 F1800 X100.197 Y86.228 E48.11601
G0 F9000 X100.817 Y86.228
G1 F1800 X118.770 Y104.181 E49.04280
G0 F9000 X118.770 Y103.560
G1 F1800 X101.438 Y86.228 E49.93753
G0 F9000 X102.059 Y86.228
G1 F1800 X118.770 Y102.939 E50.80020
G0 F9000 X118.770 Y102.319
G1 F1800 X102.680 Y86.228 E51.63084
G0 F9000 X103.301 Y86.228
G1 F1800 X118.770 Y101.698 E52.42942
G0 F9000 X118.770 Y101.077
G1 F1800 X103.922 Y86.228 E53.19595
G0 F9000 X104.542 Y86.228
G1 F1800 X118.770 Y100.456 E53.93044
G0 F9000 X116.823 Y111.120
G0 X115.362 Y112.109
G0 X114.701 Y113.770
G1 F1800 X87.159 Y86.228 E55.35224
G0 F9000 X86.538 Y86.228
G1 F1800 X114.080 Y113.770 E56.77405
G0 F9000 X113.459 Y113.770
G1 F1800 X85.917 Y86.228 E58.19585
G0 F9000 X85.296 Y86.228
G1 F1800 X112.838 Y113.770 E59.61765
G0 F9000 X112.217 Y113.770
G1 F1800 X84.676 Y86.228 E61.03942
G0 F9000 X84.055 Y86.228
G1 F1800 X111.597 Y113.770 E62.46123
G0 F9000 X110.976 Y113.770
G1 F1800 X83.434 Y86.228 E63.88303
G0 F9000 X82.813 Y86.228
G1 F1800 X110.355 Y113.770 E65.30483
G0 F9000 X109.734 Y113.770
G1 F1800 X82.192 Y86.228 E66.72663
G0 F9000 X81.571 Y86.228
G1 F1800 X109.113 Y113.770 E68.14843
G0 F9000 X108.492 Y113.770
G1 F1800 X81.228 Y86.506 E69.55588
G0 F9000 X81.228 Y87.127
G1 F1800 X107.871 Y113.770 E70.93128
G0 F9000 X107.251 Y113.770
G1 F1800 X81.228 Y87.748 E72.27464
G0 F9000 X81.228 Y88.369
G1 F1800 X106.630 Y113.770 E73.58594
G0 F9000 X106.009 Y113.770
G1 F1800 X81.228 Y88.990 E74.86518
G0 F9000 X81.228 Y89.610
G1 F1800 X105.388 Y113.770 E76.11240
G0 F9000 X104.767 Y113.770
G1 F1800 X81.228 Y90.231 E77.32755
G0 F9000 X81.228 Y90.852
G1 F1800 X104.146 Y113.770 E78.51065
G0 F9000 X103.526 Y113.770
G1 F1800 X81.228 Y91.473 E79.66171
G0 F9000 X81.228 Y92.094
G1 F1800 X102.905 Y113.770 E80.78072
G0 F9000 X102.284 Y113.770
G1 F1800 X81.228 Y92.715 E81.86767
G0 F9000 X81.228 Y93.335
G1 F1800 X101.663 Y113.770 E82.92258
G0 F9000 X101.042 Y113.770
G1 F1800 X81.228 Y93.956 E83.94544
G0 F9000 X81.228 Y94.577
G1 F1800 X100.421 Y113.770 E84.93624
G0 F9000 X99.800 Y113.769
G1 F1800 X81.228 Y95.198 E85.89496
G0 F9000 X81.228 Y95.819
G1 F1800 X99.179 Y113.769 E86.82162
G0 F9000 X98.558 Y113.769
G1 F1800 X81.228 Y96.440 E87.71622
G0 F9000 X81.228 Y97.061
G1 F1800 X97.937 Y113.769 E88.57876
G0 F9000 X97.316 Y113.769
G1 F1800 X81.228 Y97.681 E89.40928
G0 F9000 X81.228 Y98.302
G1 F1800 X96.696 Y113.769 E90.20776
G0 F9000 X96.075 Y113.769
G1 F1800 X81.228 Y98.923 E90.97418
G0 F9000 X81.228 Y99.544
G1 F1800 X95.454 Y113.769 E91.70854
G0 F9000 X94.833 Y113.769
G1 F1800 X81.228 Y100.165 E92.41085
G0 F9000 X81.228 Y100.786
G1 F1800 X94.212 Y113.769 E93.08109
G0 F9000 X93.591 Y113.769
G1 F1800 X81.228 Y101.406 E93.71931
G0 F9000 X81.228 Y102.027
G1 F1800 X92.971 Y113.769 E94.32549
G0 F9000 X92.350 Y113.769
G1 F1800 X81.228 Y102.648 E94.89962
G0 F9000 X81.228 Y103.269
G1 F1800 X91.729 Y113.769 E95.44169
G0 F9000 X91.108 Y113.769
G1 F1800 X81.228 Y103.890 E95.95170
G0 F9000 X81.228 Y104.511
G1 F1800 X90.487 Y113.769 E96.42965
G0 F9000 X89.866 Y113.769
G1 F1800 X81.228 Y105.131 E96.87557
G0 F9000 X81.228 Y105.752
G1 F1800 X89.246 Y113.769 E97.28946
G0 F9000 X88.625 Y113.769
G1 F1800 X81.228 Y106.373 E97.67129
G0 F9000 X81.228 Y106.994
G1 F1800 X88.004 Y113.769 E98.02106
G0 F9000 X87.383 Y113.769
G1 F1800 X81.228 Y107.615 E98.33877
G0 F9000 X81.228 Y108.236
G1 F1800 X86.762 Y113.769 E98.62443
G0 F9000 X86.141 Y113.769
G1 F1800 X81.228 Y108.856 E98.87805
G0 F9000 X81.228 Y109.477
G1 F1800 X85.521 Y113.769 E99.09964
G0 F9000 X84.900 Y113.769
G1 F1800 X81.228 Y110.098 E99.28918
G0 F9000 X81.228 Y110.719
G1 F1800 X84.279 Y113.769 E99.44665
G0 F9000 X83.658 Y113.769
G1 F1800 X81.228 Y111.340 E99.57207
G0 F9000 X81.228 Y111.961
G1 F1800 X83.037 Y113.769 E99.66543
G0 F9000 X82.416 Y113.769
G1 F1800 X81.228 Y112.582 E99.72673
G0 F9000 X81.228 Y113.202
G1 F1800 X81.795 Y113.769 E99.75600
G0 F9000 X105.163 Y86.228
G1 F1800 X118.770 Y99.835 E100.45844
G0 F9000 X118.770 Y99.214
G1 F1800 X105.784 Y86.228 E101.12882
G0 F9000 X106.405 Y86.228
G1 F1800 X118.770 Y98.594 E101.76716
G0 F9000 X118.770 Y97.973
G1 F1800 X107.026 Y86.228 E102.37345
G0 F9000 X107.647 Y86.228
G1 F1800 X112.490 Y91.071 E102.62346
G0 F9000 X112.284 Y90.245
G1 F1800 X108.267 Y86.228 E102.83083
G0 F9000 X108.888 Y86.228
G1 F1800 X112.292 Y89.632 E103.00655
G0 F9000 X112.413 Y89.132
G1 F1800 X109.509 Y86.228 E103.15646
G0 F9000 X110.130 Y86.228
G1 F1800 X112.601 Y88.699 E103.28403
G0 F9000 X112.846 Y88.324
G1 F1800 X110.751 Y86.228 E103.39220
G0 F9000 X111.372 Y86.228
G1 F1800 X113.142 Y87.998 E103.48357
G0 F9000 X113.487 Y87.723
G1 F1800 X111.992 Y86.228 E103.56075
G0 F9000 X112.613 Y86.228
G1 F1800 X113.888 Y87.503 E103.62657
G0 F9000 X114.352 Y87.346
G1 F1800 X113.234 Y86.228 E103.68428
G0 F9000 X113.855 Y86.228
G1 F1800 X114.900 Y87.273 E103.73823
G0 F9000 X115.584 Y87.336
G1 F1800 X114.476 Y86.228 E103.79543
G0 F9000 X115.097 Y86.228
G1 F1800 X118.770 Y89.902 E103.98507
G0 F9000 X118.770 Y90.523
G1 F1800 X117.657 Y89.410 E104.04252
G0 F9000 X117.729 Y90.103
G1 F1800 X118.770 Y91.143 E104.09624
G0 F9000 X118.770 Y91.764
G1 F1800 X117.649 Y90.644 E104.15408
G0 F9000 X117.490 Y91.105
G1 F1800 X118.770 Y92.385 E104.22016
G0 F9000 X118.770 Y93.006
G1 F1800 X117.270 Y91.506 E104.29759
G0 F9000 X116.999 Y91.855
G1 F1800 X118.770 Y93.627 E104.38904
G0 F9000 X118.770 Y94.248
G1 F1800 X116.676 Y92.154 E104.49714
G0 F9000 X116.302 Y92.400
G1 F1800 X118.770 Y94.868 E104.62455
G0 F9000 X118.770 Y95.489
G1 F1800 X115.868 Y92.587 E104.77436
G0 F9000 X115.361 Y92.701
G1 F1800 X118.770 Y96.110 E104.95034
G0 F9000 X118.770 Y96.731
